!!!OTL: Exultet
!!!SMS: T.F.: Trento, Biblioteca Musicale <i>L. Feininger</i>, FC 135 and Farfa, Biblioteca dell'Abbazia, ms. AF. 338 Musica XI
!!!EFL: 25/28
**kern	**text
*	*
*staff7	*staff7
!T.F. V.It.	!T.F. V.It.
*clefGv2	*
*k[b-]	*
=1--	=1--
1ryy	.
.	.
.	.
.	.
.	.
.	.
.	.
.	.
=2-	=2-
1ryy	.
.	.
.	.
.	.
.	.
.	.
.	.
.	.
=3-	=3-
1ryy	.
.	.
.	.
.	.
.	.
.	.
.	.
.	.
=4-	=4-
1ryy	.
.	.
.	.
.	.
=5-	=5-
1ryy	.
.	.
.	.
.	.
.	.
.	.
=6-	=6-
1ryy	.
.	.
.	.
.	.
.	.
.	.
=7-	=7-
1ryy	.
.	.
.	.
.	.
.	.
.	.
.	.
.	.
.	.
.	.
=8-	=8-
1ryy	.
.	.
.	.
.	.
.	.
.	.
.	.
.	.
.	.
.	.
.	.
.	.
=9-	=9-
1ryy	.
.	.
.	.
.	.
.	.
.	.
.	.
.	.
.	.
.	.
.	.
.	.
.	.
.	.
=10-	=10-
1ryy	.
.	.
.	.
.	.
.	.
.	.
.	.
.	.
.	.
.	.
.	.
=11-	=11-
1ryy	.
.	.
.	.
.	.
.	.
.	.
.	.
.	.
.	.
=12-	=12-
1ryy	.
.	.
.	.
.	.
.	.
.	.
.	.
.	.
=13-	=13-
1ryy	.
.	.
.	.
.	.
.	.
.	.
.	.
=14-	=14-
1ryy	.
.	.
.	.
.	.
.	.
.	.
.	.
.	.
=15-	=15-
1ryy	.
.	.
.	.
.	.
.	.
.	.
.	.
=16-	=16-
1ryy	.
.	.
.	.
.	.
.	.
.	.
.	.
.	.
.	.
=17-	=17-
1ryy	.
.	.
.	.
.	.
.	.
.	.
.	.
.	.
.	.
.	.
.	.
.	.
.	.
.	.
=18-	=18-
1ryy	.
.	.
.	.
.	.
.	.
.	.
.	.
.	.
.	.
.	.
.	.
.	.
.	.
=19-	=19-
1ryy	.
.	.
.	.
.	.
.	.
.	.
.	.
.	.
.	.
.	.
.	.
.	.
.	.
=20-	=20-
1ryy	.
.	.
.	.
.	.
.	.
.	.
.	.
.	.
.	.
.	.
.	.
=21-	=21-
1ryy	.
.	.
.	.
.	.
.	.
.	.
.	.
.	.
.	.
.	.
.	.
.	.
.	.
.	.
.	.
.	.
=22-	=22-
1ryy	.
.	.
.	.
.	.
.	.
.	.
.	.
.	.
.	.
.	.
.	.
.	.
=23-	=23-
1ryy	.
.	.
.	.
.	.
.	.
.	.
.	.
.	.
.	.
.	.
.	.
.	.
=24-	=24-
1ryy	.
.	.
.	.
.	.
.	.
.	.
.	.
.	.
.	.
.	.
.	.
.	.
.	.
.	.
.	.
=25-	=25-
1ryy	.
.	.
.	.
.	.
.	.
.	.
.	.
.	.
.	.
=26-	=26-
1ryy	.
.	.
.	.
.	.
.	.
.	.
.	.
.	.
.	.
=27-	=27-
1ryy	.
.	.
.	.
.	.
.	.
.	.
=28-	=28-
1ryy	.
.	.
.	.
.	.
.	.
.	.
=29-	=29-
1ryy	.
.	.
.	.
.	.
.	.
.	.
.	.
.	.
.	.
.	.
.	.
.	.
.	.
.	.
=30-	=30-
1ryy	.
.	.
.	.
.	.
.	.
.	.
.	.
.	.
.	.
.	.
.	.
.	.
=31-	=31-
1ryy	.
.	.
.	.
.	.
.	.
.	.
.	.
.	.
.	.
.	.
.	.
.	.
.	.
.	.
.	.
.	.
=32-	=32-
1ryy	.
.	.
.	.
.	.
.	.
.	.
.	.
.	.
.	.
.	.
.	.
.	.
.	.
.	.
.	.
=33-	=33-
1ryy	.
.	.
.	.
.	.
.	.
.	.
.	.
.	.
.	.
.	.
.	.
.	.
.	.
.	.
=34-	=34-
1ryy	.
.	.
.	.
.	.
.	.
.	.
.	.
.	.
.	.
.	.
.	.
.	.
.	.
.	.
.	.
.	.
=35-	=35-
1ryy	.
.	.
.	.
.	.
.	.
.	.
.	.
.	.
.	.
.	.
.	.
.	.
.	.
.	.
.	.
.	.
=36-	=36-
1ryy	.
.	.
.	.
.	.
.	.
.	.
.	.
.	.
.	.
.	.
.	.
.	.
.	.
.	.
.	.
.	.
=37-	=37-
1ryy	.
.	.
.	.
.	.
.	.
.	.
.	.
.	.
=38-	=38-
1ryy	.
.	.
.	.
.	.
.	.
.	.
.	.
=39-	=39-
1ryy	.
.	.
.	.
.	.
.	.
.	.
.	.
.	.
=40-	=40-
1ryy	.
.	.
.	.
.	.
.	.
.	.
.	.
=41-	=41-
1ryy	.
.	.
.	.
.	.
.	.
.	.
.	.
.	.
.	.
.	.
.	.
.	.
.	.
.	.
.	.
=42-	=42-
1ryy	.
.	.
.	.
.	.
.	.
.	.
.	.
.	.
.	.
.	.
.	.
.	.
.	.
.	.
.	.
.	.
=43-	=43-
1ryy	.
.	.
.	.
.	.
.	.
.	.
.	.
.	.
.	.
=44-	=44-
1ryy	.
.	.
.	.
.	.
.	.
.	.
.	.
.	.
=45-	=45-
1ryy	.
.	.
.	.
.	.
.	.
.	.
.	.
.	.
=46-	=46-
1ryy	.
.	.
.	.
.	.
.	.
.	.
.	.
.	.
.	.
.	.
=47-	=47-
1ryy	.
.	.
.	.
.	.
.	.
.	.
.	.
.	.
.	.
.	.
.	.
.	.
.	.
.	.
.	.
.	.
=48-	=48-
1ryy	.
.	.
.	.
.	.
.	.
.	.
.	.
.	.
.	.
.	.
.	.
.	.
.	.
.	.
.	.
.	.
=49-	=49-
1ryy	.
.	.
.	.
.	.
.	.
.	.
.	.
.	.
.	.
.	.
=50-	=50-
1ryy	.
.	.
.	.
.	.
.	.
.	.
.	.
.	.
.	.
.	.
.	.
.	.
=51-	=51-
1ryy	.
.	.
.	.
.	.
.	.
.	.
.	.
.	.
=52-	=52-
1ryy	.
.	.
.	.
.	.
.	.
.	.
.	.
.	.
.	.
.	.
.	.
=53-	=53-
1ryy	.
.	.
.	.
.	.
.	.
.	.
.	.
.	.
.	.
.	.
.	.
=54-	=54-
1ryy	.
.	.
.	.
.	.
.	.
.	.
.	.
.	.
=55-	=55-
1ryy	.
.	.
.	.
.	.
.	.
.	.
.	.
.	.
.	.
.	.
.	.
.	.
.	.
.	.
=56-	=56-
8ryy	.
.	.
8ryy	.
.	.
4ryy	.
.	.
.	.
2ryy	.
.	.
.	.
.	.
.	.
.	.
.	.
.	.
.	.
=57-	=57-
1ryy	.
.	.
.	.
.	.
.	.
.	.
.	.
.	.
=58-	=58-
1ryy	.
.	.
.	.
.	.
.	.
.	.
.	.
.	.
.	.
.	.
.	.
.	.
.	.
.	.
.	.
.	.
=59-	=59-
1ryy	.
.	.
.	.
.	.
.	.
.	.
.	.
.	.
.	.
.	.
.	.
.	.
.	.
.	.
.	.
.	.
.	.
.	.
.	.
.	.
.	.
=60-	=60-
1ryy	.
.	.
.	.
.	.
.	.
.	.
.	.
.	.
.	.
.	.
.	.
.	.
.	.
.	.
.	.
.	.
=61-	=61-
(16F	Ve-
16G	.
16A)	.
(16G	-ryye
16A)	.
16G	.
16F	.
(16F	qui-
16G)	.
16A	-a
(8A	dig-
8B-)	.
8B-	-num.
.	.
=62-	=62-
8A	et
(16A	iu-
16B-)	.
(16A	-stum
16G)	.
8A	est.
.	.
8F	peryy
.	.
8G	chryyi-
.	.
8F	-stum
.	.
(16G	do-
16A)	.
=63-	=63-
(16G	.
16A)	.
16G	.
16F	.
8A	mi
(8G	-num
.	.
8A	.
8G)	.
8F	no-
8F	-stryyum.
=64-	=64-
(16F	Qui
16A)	.
8G	nos
8G	ad
8G	noc-
16F	-te
(16F	i-
16G)	.
16G	-stam
8G	non
8G	te-
.	.
=65-	=65-
8F	ne
.	.
(16F	bryya
16G)	.
8G	-ryyum.
8G	sed
8G	lu-
8G	mi
8G	-nis
.	.
16G	ma-
16G	-tryyem.
=66-	=66-
8G	peryy-
8G	du
(16G	ce
16A)	.
(16A	-ryye
16G)	.
16F	dig-
(16G	na
16A)	.
(16G	-tus
8F)	.
.	.
8F	es.
=67-	=67-
8F	in
.	.
8F	qua
.	.
8F	e-
.	.
8A	xoryy
.	.
8G	-ta
.	.
16G	est
16F	ab
(16F	in-
16G)	.
16G	fe
16G	-ryyis.
=68-	=68-
8G	in
.	.
(16G	e-
16A)	.
(16A	teryy
16G)	.
16F	-na
(16G	di-
16A	.
16G)	.
16F	-e
16F	ryye-
16F	suryy
16G	ryyec
8F	ti
.	.
=69-	=69-
(16G	-o
16A)	.
(16G	.
16A)	.
16G	.
16F	.
8A	moryy-
(16G	tu
16A	.
8G)	.
8F	o
8F	-ryyum.
=70-	=70-
8F	So-
.	.
(16F	lu
16A)	.
8G	-tis
8G	quip-
8F	-pe
(16F	ne-
16G)	.
8G	xi
8G	-bus.
=71-	=71-
8G	et
8G	cal-
8G	ca
8G	-to
(8G	moryy-
8A)	.
(8A	-tis
8G)	.
=72-	=72-
4F	e-
.	.
(8G	cu
8A)	.
(8G	le
8F)	.
4F	-o.
=73-	=73-
8F	ryye-
8F	suryy
8A	ryye
8G	-xit
8F	a
(16F	moryy-
16G)	.
8G	tu
8G	-is
=74-	=74-
8F	qui
(16F	fu-
16G)	.
8G	e
8G	-ryyat
8G	in-
8F	-teryy
(16G	moryy-
16A)	.
(16G	.
16A)	.
=75-	=75-
8G	.
8F	.
8A	tu
(8G	-os
8A	.
8G)	.
8F	li-
8F	-beryy.
=76-	=76-
(16F	Un-
16A)	.
8G	-de
.	.
8G	et
.	.
8G	nox
8G	ip-
8G	-sa
8F	si-
(16F	de
16G)	.
=77-	=77-
8G	ryye
8G	-o.
8G	pryyo
8G	ec-
8G	cle
8G	si
(8G	a
8A)	.
=78-	=78-
(8A	-ryyum
8G)	.
8F	oryy-
(8G	[na
8A	.
8G)	.
4F	-tu]
.	.
=79-	=79-
8F	[ce-
8F	ryye
8A	o
8G	-ryyum
8F	splen-
(8F	do
8G)	.
8G	-ryye
=80-	=80-
8G	tam-
.	.
8F	-quam
.	.
(8F	di-
.	.
8G)	.
.	.
8G	-es
.	.
8G	il-
.	.
8G	lu
.	.
8G	mi
.	.
=81-	=81-
(16G	na
16A)	.
(8A	-ta
.	.
8G)	.
.	.
8F	col-
.	.
(8G	lu
.	.
8A	.
.	.
8G)	.
.	.
8F	-cet.]
.	.
=82-	=82-
8F	[qui-
8F	-a]
8F	in
8A	e-
8G	-ius
8G	ma-
8F	tu
(16F	ti
16G)	.
=83-	=83-
8G	-no
8G	ryye-
(16G	suryy
16A)	.
(16A	gen
16G)	.
8F	-te
(16G	chryyi-
16A	.
16G)	.
16F	-sto.
16A	moryys
16G	oc-
=84-	=84-
(16F	ci
16G)	.
(16G	-dit
16A)	.
(16A	ryye-
16G)	.
8F	demp
(8G	to
8A	.
8G)	.
8F	-ryyem.
=85-	=85-
4F	et
4F	e-
4G	meryy
4F	-sit
.	.
=86-	=86-
(8G	vi-
8A)	.
(8G	.
8A)	.
8G	.
8F	.
4A	-ta
.	.
=87-	=87-
(8G	cryye-
8A	.
8G)	.
8F	den
(8E	ti
8F)	.
4F	-um.
.	.
=88-	=88-
(16F	Ve-
16A)	.
8G	-ryye
8G	tu
8G	pryye-
8G	ti
8G	o
8G	-sus
8F	es
=89-	=89-
(8F	o-
8G)	.
8G	pi
8G	-fex.
8G	foryy-
(16G	ma
8A)	.
.	.
(16A	-toryy
8G)	.
.	.
=90-	=90-
4F	es
.	.
(8G	om-
8A)	.
(8G	ni
8F)	.
4F	-um.
.	.
=91-	=91-
4F	cu-
.	.
.	.
.	.
.	.
.	.
.	.
4F	-i
.	.
.	.
.	.
4F	e-
.	.
.	.
.	.
4A	qua
.	.
.	.
.	.
=92-	=92-
4G	li
.	.
.	.
.	.
4G	-tas
.	.
.	.
.	.
8G	in
.	.
8F	a-
.	.
(8F	gen
.	.
8G)	.
.	.
=93-	=93-
8G	-di
.	.
.	.
8G	non
.	.
.	.
.	.
(16G	fu-
.	.
16A)	.
.	.
(16A	-it
.	.
16G)	.
.	.
8F	of-
.	.
.	.
.	.
(16G	fi
.	.
16A)	.
.	.
(16G	ci
.	.
16F)	.
.	.
8F	-o.
.	.
.	.
.	.
=94-	=94-
4F	sed
.	.
.	.
.	.
4G	in
.	.
.	.
.	.
4F	seryy-
.	.
.	.
.	.
(8G	mo
.	.
8A)	.
.	.
=95-	=95-
(8G	.
8A)	.
.	.
4G	.
.	.
.	.
.	.
4F	.
.	.
.	.
.	.
4A	-nis
.	.
.	.
=96-	=96-
(8G	im-
.	.
8A	.
8G)	.
8F	pe
(8E	ryyi
8F)	.
4F	-o.
.	.
=97-	=97-
(16F	Qui
16A)	.
8G	oryy-
(16F	na
16G)	.
8G	-tum
8G	at-
8G	-que
(16G	a-
16A)	.
(16A	bi
16G)	.
=98-	=98-
8F	-tum
(16G	mun-
16A	.
16G)	.
16F	-di.
(16F	nec
16A)	.
8G	ad
8G	am-
8F	pli
(16F	can
16G)	.
=99-	=99-
8G	-dum
8G	qua-
8G	-si
(16G	i-
16A)	.
(16A	-nobs
16G)	.
16F	po-
(16G	ten
16A)	.
(16G	ti
16F)	.
16F	-e.
=100-	=100-
(16F	nec
16A)	.
8G	ad
8F	di-
(16F	tan
16G)	.
8G	-dum.
8G	qua-
8G	-si
8G	e-
=101-	=101-
8G	ge
8F	-nus
8G	glo-
.	.
8F	ryyi
.	.
(8G	-e
.	.
8A	.
.	.
8G	.
.	.
8A)	.
.	.
=102-	=102-
8G	.
.	.
8F	.
8A	con-
.	.
(8G	di
8A	.
.	.
8G)	.
.	.
8F	di
8F	-sti.
=103-	=103-
(16F	To-
16A)	.
8G	-tus
.	.
(16G	ac
16A)	.
(16A	ple-
16G)	.
8F	-nus
.	.
(16G	in
16A)	.
(16G	te
16F)	.
8F	es.
.	.
=104-	=104-
8F	qui
8F	dum
8F	peryy
.	.
8F	viryy-
.	.
8A	gi
.	.
8G	ne
.	.
8F	-a
.	.
(16F	vi-
16G)	.
=105-	=105-
8G	sce
8G	-ryya.
.	.
(16G	mun-
16A)	.
(16A	-do
16G)	.
8F	il-
.	.
(16G	la
16A)	.
(16G	ve
16F)	.
8F	-ryyis.
=106-	=106-
4F	viryy-
.	.
4F	gi
.	.
4F	ni
.	.
8A	ta
.	.
8G	-tem
.	.
=107-	=107-
(8F	e-
.	.
8G)	.
.	.
8G	ti
8G	-am
8G	cryye-
.	.
8F	a
(8G	tu
8A)	.
=108-	=108-
(16G	.
16A)	.
16G	.
16F	.
8A	-ryya
.	.
(8G	com-
8A	.
8G)	.
.	.
8F	men
.	.
8F	-da(s).
.	.
=109-	=109-
(8F	A-
.	.
8A)	.
.	.
4G	-pes
.	.
(8F	si-
8G)	.
4G	qui
.	.
=110-	=110-
4G	-dem
.	.
4G	dum
.	.
(8G	o-
.	.
8A)	.
.	.
(8A	-ryye
.	.
8G)	.
.	.
=111-	=111-
4F	con-
.	.
.	.
.	.
(8G	ci
.	.
8A)	.
.	.
(8G	pi
.	.
8F)	.
.	.
4F	-unt.
.	.
.	.
.	.
=112-	=112-
4A	o-
.	.
.	.
.	.
(8A	-ryye
8G)	.
.	.
4F	paryy-
.	.
.	.
.	.
(8G	tu
.	.
8A)	.
.	.
=113-	=113-
(8G	ryyi
8F)	.
4F	-unt.
.	.
(8A	ca-
8G)	.
4F	-sto
.	.
=114-	=114-
(8G	coryy-
4A)	.
.	.
(8G	po
4F)	.
.	.
4F	-ryye.
.	.
=115-	=115-
4F	non
.	.
4G	fe-
8F	-do
8F	de-
8F	si
8G	de
=116-	=116-
4F	ryyi
.	.
(8G	-o
.	.
8A)	.
.	.
(8G	.
8A)	.
8G	.
8F	.
=117-	=117-
8A	co-
.	.
(8G	pu
8A	.
8G)	.
4F	lan
.	.
.	.
4F	-turyy.
.	.
=118-	=118-
(8F	De-
8A)	.
4G	ni
4G	-que
.	.
4G	viryy-
.	.
=119-	=119-
4G	gi
4G	ni
.	.
4G	ta
.	.
4G	-tem
.	.
=120-	=120-
4F	seryy-
.	.
(4F	van
.	.
4G)	.
.	.
4G	-tes.
.	.
=121-	=121-
8G	po-
8G	ste
(8G	ryyi
8A)	.
(8A	ta
8G)	.
4F	-tem
.	.
=122-	=122-
(8G	ge-
8A)	.
(8G	ne
8F)	.
4F	-ryyant.
.	.
(8F	so-
8A)	.
=123-	=123-
4G	bo
.	.
4F	-le
.	.
(8F	gau-
8G)	.
4G	-dent.
.	.
=124-	=124-
(8G	ma-
.	.
8A)	.
(8A	-tryyes
8G)	.
.	.
8F	di-
(8G	cun
8A	.
8G)	.
=125-	=125-
4F	-turyy.
.	.
.	.
.	.
4F	in-
.	.
.	.
4A	tac
.	.
.	.
4G	-te
.	.
.	.
.	.
=126-	=126-
4G	peryy-
.	.
.	.
.	.
(4F	du
.	.
.	.
.	.
4G)	.
.	.
.	.
.	.
4G	-ryyant.
.	.
.	.
.	.
=127-	=127-
(8G	fi-
.	.
8A)	.
.	.
(8A	li
.	.
8G)	.
4F	-os
.	.
.	.
(8G	ge-
.	.
8A)	.
=128-	=128-
(8G	ne
8F)	.
4F	-ryyant.
.	.
4F	et
.	.
.	.
.	.
(16G	vi-
16A	.
16G	.
16A)	.
=129-	=129-
16G	.
16F	.
8A	-ryyos
.	.
(8G	non
.	.
8A	.
.	.
8G)	.
.	.
8F	no-
4F	-ryyunt.
.	.
.	.
.	.
=130-	=130-
(8F	Flo-
8A)	.
.	.
8G	-ryyes
.	.
(8G	u-
.	.
8A)	.
.	.
(8A	tun
.	.
8G)	.
.	.
8F	-turyy
.	.
=131-	=131-
(8G	co-
8A)	.
(8G	niu
.	.
8F)	.
.	.
8F	-ge.
.	.
(8F	flo-
.	.
8A)	.
.	.
8G	-ryyes
.	.
=132-	=132-
(16G	fun-
16A)	.
(16A	gun
16G)	.
8F	-turyy
(8G	ge-
8A)	.
(8G	ne
8F)	.
8F	-ryya.
=133-	=133-
8A	flo-
8G	-ryyes
8A	do-
8G	-mi
(8G	in-
8A)	.
(8G	stryyu
8F)	.
=134-	=134-
4F	-unt.
.	.
.	.
.	.
(8F	Flo-
.	.
8A)	.
.	.
8G	-ryyes
.	.
8G	di-
.	.
(8G	vi
8A)	.
.	.
=135-	=135-
(8A	ti
8G)	.
.	.
8F	-as
.	.
(8G	con-
8A)	.
(8G	ve
.	.
8F)	.
8F	-unt.
=136-	=136-
4G	[flo-
.	.
.	.
.	.
4F	-ryye
.	.
.	.
.	.
(8G	ce-
.	.
8A)	.
.	.
(8G	.
.	.
8A)	.
.	.
=137-	=137-
8G	.
.	.
8F	.
4A	-ryyam
.	.
.	.
.	.
(8G	con-
.	.
8A	.
.	.
4G)	.
.	.
.	.
.	.
=138-	=138-
4F	fi
.	.
.	.
(4E	ci
.	.
.	.
4F)	.
.	.
4F	-unt.]
.	.
=139-	=139-
(8F	[O
8A)	.
.	.
4G	am-
.	.
.	.
4F	mi
.	.
.	.
(8F	ryyan
8G)	.
=140-	=140-
4G	-dus
.	.
(8G	a-
4A)	.
.	.
.	.
(8A	pi
.	.
4G)	.
.	.
.	.
.	.
=141-	=141-
4F	-um
.	.
(8G	feryy-
8A	.
4G)	.
.	.
4F	-boryy.]
.	.
=142-	=142-
8F	[ad
.	.
8F	com-
.	.
8A	mu]
8G	-ne
(8F	o-
8G)	.
.	.
4G	-pus
.	.
.	.
.	.
=143-	=143-
8G	pa-
8G	ci
4G	fi
.	.
.	.
4G	-ca
.	.
.	.
.	.
(8G	turyy-
.	.
8A)	.
.	.
=144-	=144-
(8A	-ba
.	.
8G)	.
.	.
8F	con-
.	.
(8G	curyy
8A	.
.	.
8G)	.
.	.
4F	-ryyunt.
.	.
=145-	=145-
8F	et
8F	o-
8F	pe
8A	ryyan
8G	ti
8F	-bus
(8F	plu-
.	.
8G)	.
.	.
=146-	=146-
8G	ryyi
8G	-mis.
8G	u-
8G	-na
8F	au-
.	.
(16G	ge
16A)	.
(16G	.
16A)	.
16G	.
16F	.
=147-	=147-
8A	-turyy
.	.
(8G	sub-
8A	.
.	.
8G)	.
8F	stan
(8E	ti
.	.
8F)	.
.	.
8F	-a.
.	.
=148-	=148-
(8F	O
.	.
8A)	.
.	.
4G	in-
.	.
.	.
.	.
4F	vi
.	.
.	.
.	.
(8F	si
.	.
8G)	.
.	.
=149-	=149-
4G	bi
.	.
.	.
(8G	-lis
8A)	.
(8A	aryy-
8G)	.
.	.
4F	ti
.	.
.	.
=150-	=150-
(8G	fi
.	.
4A)	.
.	.
.	.
.	.
(8G	ci
.	.
4F)	.
.	.
.	.
.	.
4F	-um.
.	.
.	.
=151-	=151-
8A	pryyi-
.	.
8G	-mo
(8F	cul-
8G)	.
8G	mi
8G	-na
8G	pryyo
.	.
8G	fun-
.	.
=152-	=152-
4G	da
.	.
.	.
(8G	men
4A)	.
.	.
.	.
(8A	-tis
.	.
4G)	.
.	.
.	.
.	.
=153-	=153-
4F	e-
.	.
.	.
(8G	di
.	.
8A)	.
(8G	fi
8F)	.
4F	-cant.
.	.
=154-	=154-
8F	et
8A	tam
8G	pon-
8G	de
8G	ryyo
8G	-sam
8G	mel-
8F	-li
=155-	=155-
(16F	saryy-
16G)	.
8G	ci
.	.
8G	-nam.
.	.
8G	pen-
.	.
8G	den
.	.
8G	ti
.	.
(8G	-bus
.	.
8A)	.
.	.
=156-	=156-
(8A	do-
.	.
8G)	.
.	.
8F	mi
.	.
(8G	ci
.	.
8A)	.
.	.
(8G	li
.	.
8F)	.
.	.
8F	-is.
=157-	=157-
4F	im-
.	.
.	.
4G	po
.	.
.	.
4F	ne
.	.
(8G	-ryye
8A)	.
.	.
=158-	=158-
(8G	.
8A)	.
4G	.
.	.
4F	.
.	.
4A	non
.	.
=159-	=159-
(8G	ve-
8A	.
4G)	.
.	.
4F	ryyen
4F	-turyy.
=160-	=160-
(8F	O
.	.
8A)	.
.	.
4G	viryy-
.	.
.	.
4G	gi
.	.
.	.
4G	ni
.	.
.	.
.	.
=161-	=161-
(8G	ta
.	.
4A)	.
.	.
.	.
.	.
(8A	-tis
4G)	.
.	.
.	.
.	.
4F	in-
.	.
=162-	=162-
(8G	si
.	.
4A)	.
.	.
.	.
(8G	gni
4F)	.
.	.
4F	-a.
.	.
=163-	=163-
8F	que
8A	non
8G	pos-
8G	ses
8G	so
8F	-ryyi
(8F	dam-
.	.
8G)	.
=164-	=164-
8G	-na.
8G	sed
8G	si-
8G	-bi
(8G	lu-
8A)	.
(8A	-cryya
8G)	.
.	.
=165-	=165-
4F	con-
.	.
(8G	vec
8A	.
4G)	.
.	.
4F	-tant.
=166-	=166-
8A	au-
8G	fe
8G	ryye
.	.
(16G	-turyy
16A)	.
(16A	qui-
16G)	.
8F	-dem
(16G	pryye-
16A	.
8G)	.
=167-	=167-
8F	-dam.
8F	et
8F	cum
8G	pryye-
8F	-dam
8G	mi-
8F	ni
8F	-me
=168-	=168-
(16G	tol-
16A)	.
(16G	.
16A)	.
16G	.
16F	.
8A	-lunt
.	.
(16G	pec-
16A	.
8G)	.
.	.
8F	ca
.	.
8F	-ta.
.	.
=169-	=169-
(16F	Spo-
16A)	.
8G	li
.	.
8G	-ant
.	.
8G	qui-
.	.
(16G	-dem
16A)	.
(16A	flo-
16G)	.
8F	-ryyum
.	.
(16G	cu-
16A	.
=170-	=170-
16G)	.
16F	-tem.
8F	et
.	.
8G	moryy-
.	.
8F	su
.	.
8F	-um
.	.
8G	non
.	.
8F	an-
.	.
(16G	no
16A)	.
=171-	=171-
(16G	.
16A)	.
16G	.
16F	.
8A	-tant
.	.
(16G	ci-
16A	.
8G)	.
.	.
8F	ca
.	.
(16E	tryyi
16F)	.
8F	-cem.
.	.
=172-	=172-
(8F	Sed
.	.
8A)	.
4G	in-
.	.
.	.
.	.
4F	-teryy
.	.
.	.
(8F	hec
.	.
8G)	.
.	.
=173-	=173-
4G	que
.	.
4G	di-
.	.
.	.
.	.
4G	nu
.	.
.	.
.	.
4F	me
.	.
.	.
.	.
=174-	=174-
(4F	ryya
.	.
.	.
.	.
4G)	.
.	.
4G	vi
.	.
.	.
4G	-mus.
.	.
=175-	=175-
8G	hu-
8G	-ius
4G	ce-
.	.
4G	ryye
.	.
.	.
4G	-i
.	.
.	.
.	.
=176-	=176-
4G	gryya-
.	.
4G	ti
.	.
.	.
(8G	-am
.	.
8A)	.
.	.
(8A	pryye-
.	.
8G)	.
.	.
=177-	=177-
4F	di
.	.
.	.
.	.
(8G	ce
.	.
8A	.
4G)	.
.	.
.	.
4F	-mus.
.	.
.	.
.	.
=178-	=178-
4F	Cu-
.	.
4F	-ius
.	.
.	.
.	.
4A	o-
.	.
4G	-doryy
.	.
.	.
.	.
=179-	=179-
8F	su-
(8F	a
8G)	.
8G	-vis
4G	est.
.	.
.	.
(8G	et
.	.
8A)	.
.	.
=180-	=180-
(8A	flam-
.	.
8G)	.
.	.
8F	-ma
.	.
(8G	y-
.	.
8A)	.
(8G	la
8F)	.
8F	-ryyis.
=181-	=181-
4F	non
.	.
.	.
.	.
4A	te-
.	.
.	.
.	.
4G	-tryyo
.	.
.	.
.	.
4F	o-
.	.
.	.
=182-	=182-
(8F	do
8G)	.
4G	-ryye
.	.
.	.
.	.
4G	aryy-
.	.
(8G	vi
8A)	.
=183-	=183-
(8A	-na
8G)	.
8F	de-
(8G	su
8A	.
8G)	.
4F	-dat.
=184-	=184-
4F	sed
.	.
4F	io-
.	.
4F	cun
.	.
.	.
.	.
4A	dis
.	.
.	.
=185-	=185-
4G	si
.	.
.	.
.	.
4G	-ma
.	.
.	.
.	.
.	.
.	.
.	.
4G	su-
.	.
.	.
.	.
.	.
.	.
.	.
4G	a
.	.
.	.
.	.
.	.
.	.
.	.
.	.
=186-	=186-
4F	vi
.	.
.	.
.	.
.	.
.	.
(4F	ta
.	.
.	.
.	.
.	.
.	.
4G)	.
.	.
.	.
.	.
4G	-te.
.	.
.	.
.	.
.	.
.	.
.	.
=187-	=187-
4G	qui
.	.
4G	pe-
.	.
4G	ryye
.	.
4G	gryyi
.	.
=188-	=188-
4G	-nis
.	.
4G	non
.	.
4G	in-
.	.
4G	fi
.	.
=189-	=189-
(8G	ci
8A)	.
(8A	-turyy
8G)	.
8F	pig-
(16G	men
16A	.
8G)	.
8F	-tis.
=190-	=190-
4F	sed
.	.
4F	il-
.	.
4G	lu
.	.
4F	mi
.	.
=191-	=191-
4G	na
.	.
4F	-turyy
.	.
.	.
.	.
(8G	spi-
.	.
8A)	.
.	.
(8G	.
.	.
8A)	.
.	.
=192-	=192-
8G	.
.	.
8F	.
.	.
8A	ryyi
.	.
(8G	-tu
.	.
8A	.
.	.
8G)	.
.	.
8F	sanc-
8F	-to.
.	.
=193-	=193-
(8F	Qui
.	.
8A)	.
.	.
8G	ut
8F	ac-
(8F	cen
8G)	.
8G	-sus
8G	pryyo-
=194-	=194-
8G	pryyi
8F	-a
(8F	coryy-
8G)	.
8G	po
8G	-ryyis.
8G	com-
(8G	pa
=195-	=195-
8A)	.
(8A	-ges
8G)	.
.	.
8F	de-
.	.
(8G	pa
8A	.
.	.
8G)	.
8F	-scit.
=196-	=196-
(8F	i-
.	.
8A)	.
.	.
8G	-ta
.	.
8G	co-
.	.
8G	a
.	.
8G	go
.	.
8G	la
.	.
8F	-tas
.	.
=197-	=197-
(8F	la-
.	.
8G)	.
.	.
8G	cryyi
.	.
8G	-mas
.	.
8G	in
.	.
8G	ryyi-
.	.
8G	bu
.	.
8G	-los
.	.
=198-	=198-
(8G	[fun-
.	.
8A)	.
.	.
(8A	-dit
.	.
8G)	.
.	.
8F	gut-
.	.
(16G	ta
16A	.
8G)	.
8F	-ryyum.]
.	.
=199-	=199-
8F	[Qui-
.	.
8F	-que
8A	se-
8G	mi
8G	u
8F	-sta
(16F	mem-
16G)	.
8G	-bryya
=200-	=200-
8G	am-
8G	bryyo
.	.
8G	se
.	.
8F	-o
.	.
(16F	san-
16G)	.
8G	gui
.	.
8G	-ne]
.	.
8G	fla-
=201-	=201-
8G	be
8G	-a
(16G	ve-
16A)	.
(16A	-na
16G)	.
8F	di-
.	.
(16G	stol
16A	.
8G)	.
.	.
8F	-lit
.	.
=202-	=202-
4A	ha-
.	.
4G	bi
.	.
.	.
.	.
4F	-tum.
.	.
8G	bi-
8F	-bit
=203-	=203-
(8G	ig-
.	.
8A)	.
.	.
(8G	.
8A)	.
.	.
8G	.
.	.
8F	.
.	.
4A	-nis
.	.
=204-	=204-
(8G	hu-
8A	.
4G)	.
.	.
4F	mo
.	.
4F	-ryyem.
.	.
=205-	=205-
(16F	In
16A)	.
8G	hu-
8G	-ius
8G	(au-
8G	-tem)
8G	ce-
.	.
8G	ryye
8G	-i
=206-	=206-
8G	lu-
.	.
8G	mi
.	.
8F	-nis
(16F	coryy-
16G)	.
8G	po
.	.
8G	-ryye.
.	.
8G	te
8G	om-
.	.
=207-	=207-
8G	ni
8G	po
.	.
(16G	-tens
16A)	.
(16A	po-
16G)	.
8F	stu
(16G	la
16A	.
8G)	.
8F	-mus.
=208-	=208-
8F	Ut
8F	su-
8G	peryy
8F	-ne
8F	be-
8F	ne
8F	dic
8F	ti
=209-	=209-
8G	o
8F	-nis.
(8G	mu-
.	.
8A)	.
.	.
(8G	.
.	.
8A)	.
8G	.
.	.
8F	.
.	.
=210-	=210-
8A	-num
(8G	ac-
8A	.
8G)	.
8F	com
(8E	mo
8F)	.
8F	-des.
=211-	=211-
8F	Ut
.	.
(8F	si
8A)	.
8G	quis
8G	hunc
(8F	sump-
8G)	.
8G	se
=212-	=212-
8G	-ryyit
8G	ad-
8G	veryy
8G	-sus
.	.
(8G	fla-
.	.
8A)	.
.	.
(8A	-bryya
.	.
8G)	.
.	.
=213-	=213-
4F	ven-
.	.
(8G	to
.	.
8A	.
4G)	.
.	.
4F	-ryyum.
.	.
=214-	=214-
8F	ad
8A	veryy-
8G	-sus
(16F	spi-
16G)	.
8G	ryyi
(16G	-tus
16A)	.
(16A	pryyo-
16G)	.
8F	cel
.	.
=215-	=215-
(16G	la
16A	.
16G)	.
16F	-ryyum.
8A	sit
.	.
8G	e-
.	.
8G	-is
.	.
8G	do-
.	.
8G	mi
.	.
8G	-ne
.	.
=216-	=216-
8G	sin-
8G	gu
8G	la
8G	-ryye
.	.
8F	peryy-
.	.
(16F	fu
16G)	.
8G	gi
.	.
8G	-um.
.	.
=217-	=217-
4F	sit
.	.
4G	mu-
.	.
4F	-ryyus
.	.
4ryy	.
.	.
=218-	=218-
4F	ab
.	.
(8G	hos-
.	.
8A)	.
.	.
(8G	.
.	.
8A)	.
.	.
8G	.
.	.
8F	.
.	.
=219-	=219-
8A	-te
(8G	fi-
8A	.
8G)	.
8F	de
.	.
(8E	li
.	.
8F)	.
8F	-bus.
.	.
=220-	=220-
(16F	Sal-
16A)	.
8G	-vum
8G	fac
8G	po-
8G	pu
8G	-lum
.	.
8G	tu-
.	.
8F	-um
.	.
=221-	=221-
(16F	do-
16G)	.
8G	mi
8G	-ne.
.	.
8G	et
8G	be-
.	.
8G	ne
8G	-dic
.	.
8G	he-
.	.
=222-	=222-
8G	ryye
.	.
(16G	di
16A)	.
(8A	ta
.	.
8G)	.
8F	-tem
.	.
(16G	tu-
16A	.
8G)	.
.	.
8F	-am.
=223-	=223-
(16F	ut
16A)	.
8G	ryye-
8F	de
(16F	un
16G)	.
8G	-tes
8G	ad
8G	fe-
8G	sti
=224-	=224-
(8G	vi
.	.
8A)	.
.	.
(8A	ta
8G)	.
8F	-tem
.	.
(8G	pa-
.	.
8A	.
.	.
8G)	.
.	.
=225-	=225-
4F	-sche.
.	.
(8F	peryy
.	.
8A)	.
4G	vi-
.	.
.	.
4G	si
.	.
.	.
=226-	=226-
(8F	bi
.	.
8G)	.
.	.
4G	li
.	.
.	.
.	.
4G	-bus
.	.
.	.
.	.
4G	et
.	.
.	.
.	.
=227-	=227-
8G	in-
.	.
8G	vi
.	.
8G	si
.	.
(8G	bi
8A)	.
(8A	li
8G)	.
8F	-bus
=228-	=228-
(8G	tu-
8A	.
8G)	.
8F	-is
(8F	in-
.	.
8A)	.
8G	hi
8G	-ans.
=229-	=229-
4G	dum
4F	pryye-
(8F	sen
8G)	.
4G	ti
=230-	=230-
4G	-um
.	.
(8G	u-
4A)	.
.	.
(8A	su
4G)	.
.	.
=231-	=231-
4F	fryyu
.	.
(8G	un
8A	.
4G)	.
.	.
4F	-turyy.
=232-	=232-
8F	fu-
8F	tu
8G	ryya
8F	-ryyum
8F	de-
8F	si
8G	de
8F	ryyi
=233-	=233-
(8G	-a
8A)	.
(8G	.
8A)	.
8G	.
8F	.
4A	ac-
.	.
=234-	=234-
(8G	cen
8A	.
4G)	.
.	.
4F	dan
.	.
4F	-turyy.
.	.
=235-	=235-
4F	Pryye-
.	.
(4F	ca
.	.
4A)	.
.	.
4G	-muryy
.	.
=236-	=236-
4G	eryy-
.	.
4G	-go
.	.
.	.
4F	te
.	.
.	.
.	.
(4F	do-
.	.
.	.
.	.
=237-	=237-
4G)	.
.	.
4G	mi
.	.
4G	-ne.
.	.
4G	Ut
.	.
=238-	=238-
8G	nos
8G	fa-
8G	mu
8G	-los
8G	tu-
8G	-os
8G	om-
8F	-nem
=239-	=239-
(8F	cle-
8G)	.
8G	-ryyum
8G	et
8G	de-
8G	vo
(8G	tis
8A)	.
=240-	=240-
(8A	si
8G)	.
8F	-mum
(8G	po-
8A)	.
(8G	pu
.	.
8F)	.
.	.
8F	-lum.
.	.
=241-	=241-
4F	U-
.	.
4A	-na
.	.
4G	cum
.	.
8G	be-
.	.
8G	a
=242-	=242-
8G	tis
.	.
8G	si
.	.
8F	-mo
.	.
(8F	vi-
.	.
8G)	.
.	.
8G	-ryyo.
.	.
8G	pa-
.	.
(8G	-pa
=243-	=243-
8A)	.
.	.
(8A	no-
.	.
8G)	.
.	.
8F	-stryyo.
.	.
(8G	ill.
8A	.
.	.
8G)	.
.	.
8F	.
=244-	=244-
(8F	et
8A)	.
4G	an-
(4F	ti
4G)	.
.	.
=245-	=245-
4G	sti
.	.
(8G	-te
4A)	.
.	.
(8A	no-
4G)	.
.	.
=246-	=246-
4F	-stryyo.
.	.
(8G	il.
8A	.
4G)	.
.	.
.	.
4F	.
.	.
=247-	=247-
8F	et
.	.
8A	his
.	.
8G	qui
.	.
8G	ti-
.	.
8F	-bi
.	.
(8F	of-
8G)	.
8G	fe
=248-	=248-
8G	-ryyunt.
8G	hoc
8G	sa-
8F	cryyi
.	.
(16G	fi
16A	.
16G	.
16A)	.
8G	.
.	.
8F	.
.	.
=249-	=249-
4A	ci
(8G	-um
8A	.
8G)	.
8F	lau-
4F	-dis.
.	.
=250-	=250-
(16F	Me-
16A)	.
8G	men
8G	-to
8G	e-
8G	ti
8F	-am
(8F	do-
8G)	.
=251-	=251-
4G	mi
.	.
4G	-ne
.	.
.	.
.	.
8G	fa-
.	.
8G	mu
(8G	lo
.	.
8A)	.
=252-	=252-
(8A	-ryyum
8G)	.
8F	tu-
(8G	o
8A	.
8G)	.
4F	-ryyum.
=253-	=253-
4F	pryyin-
.	.
.	.
.	.
4A	ci
.	.
.	.
.	.
4G	pi
.	.
.	.
4G	-um
.	.
=254-	=254-
4F	no-
.	.
(4F	stryyo
.	.
8G)	.
.	.
8G	-ryyum.
.	.
(8G	il.
.	.
8A)	.
.	.
=255-	=255-
(8A	.
.	.
8G)	.
.	.
8F	et.
.	.
(8G	il.
.	.
8A	.
8G)	.
4F	.
.	.
=256-	=256-
4F	et
.	.
.	.
.	.
4G	om-
.	.
4F	-ni
.	.
4F	e-
.	.
.	.
=257-	=257-
8G	xeryy
8F	ci
8F	-tum
.	.
(8G	.
.	.
8A)	.
.	.
(8G	.
8A)	.
.	.
8G	.
=258-	=258-
8F	.
.	.
8A	.
(8G	.
8A	.
8G)	.
8F	.
4F	.
.	.
=259-	=259-
8F	.
8A	.
8G	.
8G	.
8F	.
(8F	.
4G)	.
.	.
=260-	=260-
4G	.
.	.
4G	.
.	.
4G	.
.	.
(8G	.
8A)	.
=261-	=261-
(8A	.
8G)	.
8F	.
(8G	.
8A	.
8G)	.
.	.
4F	.
.	.
=262-	=262-
(8F	.
8A)	.
4G	.
.	.
(8F	.
8G)	.
4G	.
=263-	=263-
(8G	.
4A)	.
.	.
(8A	no-
4G)	.
.	.
.	.
.	.
4F	-stryyo.
.	.
.	.
.	.
=264-	=264-
(4G	il.
.	.
.	.
4A	.
.	.
.	.
4G)	.
.	.
.	.
.	.
4F	.
.	.
.	.
=265-	=265-
8F	sed
.	.
8F	et
.	.
8A	om-
8G	ni
8G	-bus
8F	pryye-
(16F	sbi
16G)	.
8G	te
=266-	=266-
(16G	-ryyis
8A)	.
.	.
(16A	di-
8G)	.
8F	a
(16G	co
8A)	.
.	.
(16G	ni
8F)	.
8F	-bus.
=267-	=267-
8A	sub-
(16G	di
16A	.
8G)	.
8F	a
(16G	co
8A)	.
.	.
(16G	ni
8F)	.
8F	-bus.
=268-	=268-
4F	cunc-
.	.
4G	to
.	.
4F	-que
.	.
4ryy	.
.	.
=269-	=269-
(8G	cle-
8A)	.
(8G	.
8A)	.
8G	.
.	.
8F	.
.	.
4A	-ryyo
.	.
.	.
.	.
=270-	=270-
(8G	vel
.	.
8A	.
.	.
4G)	.
.	.
.	.
.	.
4F	ple-
.	.
4F	-be.
.	.
=271-	=271-
(8F	Me-
.	.
8A)	.
.	.
8G	mo
.	.
8F	-ryya
.	.
(8F	do-
.	.
8G)	.
.	.
8G	mi
.	.
8G	-ne
.	.
=272-	=272-
8G	im-
.	.
8G	pe
.	.
8G	ryya
.	.
8G	to
.	.
8G	-ryyum
.	.
8G	no-
.	.
8G	stryyo
.	.
8G	-ryyum
.	.
=273-	=273-
(8G	il.
.	.
8A)	.
.	.
(8A	.
.	.
8G)	.
.	.
8F	et.
.	.
(16G	il.
16A	.
8G)	.
.	.
.	.
8F	.
.	.
.	.
.	.
=274-	=274-
8F	et
8A	pryyin-
.	.
8G	ci
.	.
4G	-pum
.	.
.	.
8F	no-
.	.
(8F	stryyo
.	.
8G)	.
=275-	=275-
4G	-ryyum.
.	.
(8G	il.
.	.
4A)	.
.	.
.	.
.	.
(8A	.
.	.
4G)	.
.	.
.	.
.	.
=276-	=276-
4F	et.
.	.
(8G	il.
8A	.
4G)	.
.	.
4F	.
=277-	=277-
4F	et
.	.
.	.
.	.
8F	e-
.	.
8G	o
.	.
4F	-ryyum.
.	.
.	.
8F	e-
.	.
8G	xeryy
.	.
=278-	=278-
4F	ci
.	.
(8G	-tum
8A	.
.	.
8G	.
.	.
8A)	.
8G	.
.	.
8F	.
=279-	=279-
4A	u-
.	.
(8G	ni
8A	.
8G)	.
8F	veryy
4F	-sum.
=280-	=280-
8F	Qui
(8F	vi-
8A)	.
8G	-vis
8G	et
8G	ryyeg-
8G	-nas
8F	cum
=281-	=281-
(16F	pa-
16G)	.
8G	-tryye
8G	in
8G	u-
8F	ni
(16F	ta
16G)	.
8G	-te
8G	spi-
=282-	=282-
8G	ryyi
(16G	-tus
8A)	.
.	.
(16A	sanc-
8G)	.
8F	-ti
(16G	de-
16A	.
8G)	.
8F	-us.
=283-	=283-
4F	peryy
.	.
8G	om-
8F	ni
.	.
4F	-a
.	.
8G	se-
8F	cu
=284-	=284-
(8G	-la
.	.
8A)	.
.	.
(8G	.
.	.
8A)	.
.	.
8G	.
.	.
8F	.
.	.
4A	se-
.	.
.	.
.	.
=285-	=285-
(8G	cu
.	.
8A	.
.	.
8G)	.
.	.
8F	lo
.	.
8F	-ryyum.
.	.
8F	a-
.	.
4G	-men.
.	.
.	.
.	.
=286-	=286-
1ryy	.
.	.
.	.
.	.
.	.
.	.
.	.
.	.
=287-	=287-
1ryy	.
.	.
.	.
.	.
.	.
.	.
.	.
.	.
=288-	=288-
1ryy	.
.	.
.	.
.	.
.	.
.	.
.	.
.	.
=289-	=289-
1ryy	.
.	.
.	.
.	.
.	.
.	.
.	.
.	.
.	.
.	.
=290-	=290-
1ryy	.
.	.
.	.
.	.
.	.
.	.
.	.
.	.
=291-	=291-
1ryy	.
.	.
.	.
.	.
.	.
.	.
.	.
.	.
=292-	=292-
1ryy	.
.	.
.	.
.	.
.	.
.	.
.	.
.	.
.	.
.	.
.	.
.	.
.	.
.	.
.	.
=293-	=293-
1ryy	.
.	.
.	.
.	.
.	.
.	.
.	.
.	.
.	.
.	.
.	.
.	.
=294-	=294-
1ryy	.
.	.
.	.
.	.
.	.
.	.
.	.
=295-	=295-
1ryy	.
.	.
.	.
.	.
.	.
.	.
.	.
.	.
.	.
.	.
.	.
.	.
.	.
.	.
.	.
=296-	=296-
1ryy	.
.	.
.	.
.	.
.	.
.	.
.	.
.	.
.	.
.	.
.	.
.	.
.	.
.	.
=297-	=297-
1ryy	.
.	.
.	.
.	.
.	.
.	.
.	.
=298-	=298-
1ryy	.
.	.
.	.
.	.
.	.
.	.
.	.
.	.
.	.
.	.
.	.
.	.
.	.
.	.
.	.
.	.
=299-	=299-
1ryy	.
.	.
.	.
.	.
.	.
.	.
.	.
.	.
.	.
.	.
.	.
.	.
.	.
.	.
.	.
.	.
=300-	=300-
1ryy	.
.	.
.	.
.	.
.	.
.	.
.	.
.	.
.	.
.	.
.	.
.	.
.	.
.	.
.	.
.	.
=301-	=301-
1ryy	.
.	.
.	.
.	.
=302-	=302-
1ryy	.
.	.
.	.
.	.
.	.
.	.
.	.
=303-	=303-
1ryy	.
.	.
.	.
.	.
.	.
=304-	=304-
1ryy	.
.	.
.	.
.	.
.	.
.	.
.	.
.	.
.	.
.	.
=305-	=305-
1ryy	.
.	.
.	.
.	.
.	.
.	.
.	.
.	.
.	.
.	.
.	.
.	.
.	.
.	.
.	.
=306-	=306-
1ryy	.
.	.
.	.
.	.
.	.
.	.
.	.
.	.
.	.
.	.
.	.
.	.
.	.
.	.
.	.
.	.
=307-	=307-
1ryy	.
.	.
.	.
.	.
.	.
.	.
.	.
.	.
=308-	=308-
1ryy	.
.	.
.	.
.	.
.	.
.	.
.	.
.	.
=309-	=309-
1ryy	.
.	.
.	.
.	.
.	.
.	.
.	.
.	.
.	.
.	.
=310-	=310-
1ryy	.
.	.
.	.
.	.
.	.
.	.
.	.
.	.
=311-	=311-
1ryy	.
.	.
.	.
.	.
.	.
.	.
.	.
.	.
=312-	=312-
1ryy	.
.	.
.	.
.	.
.	.
.	.
.	.
=313-	=313-
1ryy	.
.	.
.	.
.	.
.	.
.	.
.	.
.	.
.	.
.	.
=314-	=314-
1ryy	.
.	.
.	.
.	.
.	.
.	.
.	.
.	.
.	.
.	.
.	.
.	.
.	.
=315-	=315-
1ryy	.
.	.
.	.
.	.
.	.
.	.
.	.
.	.
.	.
.	.
.	.
.	.
.	.
.	.
=316-	=316-
1ryy	.
.	.
.	.
.	.
.	.
.	.
.	.
.	.
.	.
.	.
.	.
.	.
.	.
.	.
.	.
=317-	=317-
1ryy	.
.	.
.	.
.	.
.	.
.	.
.	.
.	.
.	.
.	.
.	.
.	.
.	.
.	.
.	.
.	.
=318-	=318-
1ryy	.
.	.
.	.
.	.
.	.
.	.
.	.
.	.
.	.
.	.
.	.
.	.
.	.
.	.
.	.
.	.
=319-	=319-
1ryy	.
.	.
.	.
.	.
.	.
.	.
.	.
.	.
.	.
.	.
.	.
.	.
.	.
=320-	=320-
1ryy	.
.	.
.	.
.	.
.	.
.	.
.	.
.	.
.	.
.	.
.	.
.	.
.	.
=321-	=321-
1ryy	.
.	.
.	.
.	.
.	.
.	.
.	.
.	.
.	.
.	.
.	.
.	.
.	.
.	.
=322-	=322-
1ryy	.
.	.
.	.
.	.
.	.
.	.
.	.
.	.
.	.
.	.
.	.
.	.
=323-	=323-
1ryy	.
.	.
.	.
.	.
.	.
.	.
.	.
.	.
.	.
.	.
.	.
.	.
.	.
.	.
=324-	=324-
1ryy	.
.	.
.	.
.	.
.	.
.	.
.	.
.	.
.	.
.	.
.	.
.	.
.	.
.	.
.	.
.	.
=325-	=325-
1ryy	.
.	.
.	.
.	.
.	.
.	.
.	.
.	.
.	.
.	.
.	.
.	.
.	.
.	.
.	.
.	.
=326-	=326-
1ryy	.
.	.
.	.
.	.
.	.
.	.
.	.
.	.
.	.
.	.
.	.
.	.
.	.
.	.
.	.
.	.
=327-	=327-
1ryy	.
.	.
.	.
.	.
.	.
.	.
.	.
.	.
.	.
.	.
.	.
.	.
.	.
.	.
.	.
.	.
=328-	=328-
1ryy	.
.	.
.	.
.	.
.	.
.	.
.	.
.	.
.	.
.	.
.	.
.	.
.	.
.	.
.	.
=329-	=329-
1ryy	.
.	.
.	.
.	.
.	.
.	.
.	.
.	.
.	.
.	.
.	.
.	.
.	.
.	.
=330-	=330-
1ryy	.
.	.
.	.
.	.
.	.
.	.
.	.
.	.
.	.
.	.
.	.
.	.
.	.
.	.
=331-	=331-
1ryy	.
.	.
.	.
.	.
.	.
.	.
.	.
.	.
.	.
.	.
.	.
.	.
.	.
=332-	=332-
1ryy	.
.	.
.	.
.	.
.	.
.	.
.	.
.	.
.	.
.	.
.	.
=333-	=333-
1ryy	.
.	.
.	.
.	.
.	.
.	.
.	.
.	.
.	.
.	.
=334-	=334-
1ryy	.
.	.
.	.
.	.
.	.
.	.
.	.
.	.
.	.
.	.
.	.
=335-	=335-
1ryy	.
.	.
.	.
.	.
.	.
.	.
.	.
.	.
=336-	=336-
1ryy	.
.	.
.	.
.	.
.	.
.	.
.	.
.	.
=337-	=337-
1ryy	.
.	.
.	.
.	.
.	.
.	.
.	.
=338-	=338-
1ryy	.
.	.
.	.
.	.
.	.
.	.
.	.
.	.
.	.
.	.
.	.
=339-	=339-
1ryy	.
.	.
.	.
.	.
.	.
.	.
.	.
.	.
.	.
=340-	=340-
1ryy	.
.	.
.	.
.	.
.	.
.	.
.	.
.	.
=341-	=341-
1ryy	.
.	.
.	.
.	.
.	.
.	.
.	.
.	.
.	.
.	.
=342-	=342-
1ryy	.
.	.
.	.
.	.
.	.
.	.
=343-	=343-
1ryy	.
.	.
.	.
.	.
.	.
.	.
.	.
.	.
.	.
=344-	=344-
1ryy	.
.	.
.	.
.	.
.	.
.	.
.	.
.	.
=345-	=345-
1ryy	.
.	.
.	.
.	.
.	.
.	.
.	.
.	.
=346-	=346-
1ryy	.
.	.
.	.
.	.
.	.
.	.
.	.
.	.
=347-	=347-
1ryy	.
.	.
.	.
.	.
.	.
.	.
.	.
.	.
.	.
.	.
.	.
=348-	=348-
1ryy	.
.	.
.	.
.	.
.	.
.	.
.	.
.	.
.	.
=349-	=349-
1ryy	.
.	.
.	.
.	.
.	.
.	.
=350-	=350-
1ryy	.
.	.
.	.
.	.
.	.
.	.
.	.
.	.
=351-	=351-
1ryy	.
.	.
.	.
.	.
.	.
.	.
.	.
.	.
.	.
.	.
=352-	=352-
1ryy	.
.	.
.	.
.	.
.	.
.	.
.	.
.	.
=353-	=353-
1ryy	.
.	.
.	.
.	.
.	.
.	.
.	.
=354-	=354-
1ryy	.
.	.
.	.
.	.
.	.
.	.
.	.
=355-	=355-
1ryy	.
.	.
.	.
.	.
.	.
.	.
.	.
.	.
=356-	=356-
1ryy	.
.	.
.	.
.	.
.	.
.	.
.	.
.	.
=357-	=357-
1ryy	.
.	.
.	.
.	.
.	.
.	.
.	.
.	.
.	.
=358-	=358-
1ryy	.
.	.
.	.
.	.
.	.
.	.
=359-	=359-
1ryy	.
.	.
.	.
.	.
.	.
.	.
.	.
=360-	=360-
1ryy	.
.	.
.	.
.	.
.	.
.	.
.	.
.	.
=361-	=361-
1ryy	.
.	.
.	.
.	.
.	.
.	.
.	.
.	.
=362-	=362-
1ryy	.
.	.
.	.
.	.
.	.
.	.
.	.
.	.
=363-	=363-
1ryy	.
.	.
.	.
.	.
=364-	=364-
1ryy	.
=365-	=365-
1ryy	.
=366-	=366-
1ryy	.
=367-	=367-
1ryy	.
=368-	=368-
1ryy	.
=369-	=369-
1ryy	.
==	==
*-	*-
!!!hum2abc: -p "%%nostems" -M none
!!!RWG: Rhythms and barlines are for alignment only, not found in source.
!!!YEC: Copyright 2009, Elsa De Luca
!!!title: @{OTL}, @{SMS}
